X: 41845
T: Violet Hill
R: reel
M: 4/4
K: Cmajor
|:CD EF GA BG|c/c/c cd cA GE|F/F/F FG FE DC|B,C DE FD ED|
CD EF GA BG|c/c/c cd cA GE|F/F/F dc BG FD|B,C DB, C4:|
|:c/c/c cd cA GA|B/B/B Bc BA GA|c/c/c cd cB AG|FE DE FG AB|
c/c/c cd cA GA|B/B/B Bc BA GA|D2 dc BG FD|B,C DB, C4:|

